src/pos-icons/file-phone.svg

<svg height="24" viewBox="0 0 24 24" width="24" xmlns="http://www.w3.org/2000/svg"><path d="m14 2h-8c-1.11 0-2 .89-2 2v16c0 1.11.89 2 2 2h12c1.11 0 2-.89 2-2v-12zm3 17.44c0 .31-.25.56-.56.56-5.21 0-9.44-4.23-9.44-9.44 0-.31.25-.56.56-.56h1.94c.31 0 .56.25.56.56 0 .69.11 1.36.31 1.98.06.19.02.41-.14.57l-1.23 1.22c.81 1.57 2.1 2.86 3.67 3.67l1.23-1.23c.15-.16.37-.2.56-.14.62.2 1.29.32 1.99.32.3 0 .55.24.55.55zm-4-10.44v-5.5l5.5 5.5z"/></svg>

<?xml version="1.0" encoding="UTF-8"?><!DOCTYPE svg PUBLIC "-//W3C//DTD SVG 1.1//EN" "http://www.w3.org/Graphics/SVG/1.1/DTD/svg11.dtd"><svg xmlns="http://www.w3.org/2000/svg" xmlns:xlink="http://www.w3.org/1999/xlink" version="1.1" id="mdi-file-phone" width="24" height="24" viewBox="0 0 24 24"><path d="M14 2H6C4.89 2 4 2.89 4 4V20C4 21.11 4.89 22 6 22H18C19.11 22 20 21.11 20 20V8L14 2M17 19.44C17 19.75 16.75 20 16.44 20C11.23 20 7 15.77 7 10.56C7 10.25 7.25 10 7.56 10H9.5C9.81 10 10.06 10.25 10.06 10.56C10.06 11.25 10.17 11.92 10.37 12.54C10.43 12.73 10.39 12.95 10.23 13.11L9 14.33C9.81 15.9 11.1 17.19 12.67 18L13.9 16.77C14.05 16.61 14.27 16.57 14.46 16.63C15.08 16.83 15.75 16.95 16.45 16.95C16.75 16.95 17 17.19 17 17.5V19.44M13 9V3.5L18.5 9H13Z" /></svg>
